images/Add-Button-320px.svg

<svg width="282" height="50" viewBox="0 0 282 50" fill="none" xmlns="http://www.w3.org/2000/svg">
<rect x="1" y="1" width="280" height="48" rx="1" stroke="white" stroke-width="2"/>
<path d="M149 24.1111H141.889V17H140.111V24.1111H133V25.8889H140.111V33H141.889V25.8889H149V24.1111Z" fill="white"/>
</svg>

<svg xmlns="http://www.w3.org/2000/svg" width="282" height="50" fill="none" xmlns:v="https://vecta.io/nano"><rect x="1" y="1" width="280" height="48" rx="1" stroke="#fff" stroke-width="2"/><path d="M149 24.111h-7.111V17h-1.778v7.111H133v1.778h7.111V33h1.778v-7.111H149v-1.778z" fill="#fff"/></svg>
